X:1
T:Title
%%score { 1 | 2 }
L:1/8
M:4/4
K:Eb
V:1 treble nm="Grand Piano"
V:2 bass 
V:1
 z4 z2[Q:1/4=92] E2 | E2 D2 C2 B,2 | G6 G2 | [CG]2 [CF]2 E2 D2 |[M:3/4] E6 |[M:1/4] E2 | %6
[M:4/4] [EA]2 [EA]2 G2 _G2 | G2 =A2 B2 c2 | d4 =A4 |[M:3/4] B6 |[M:1/4] B2 |[M:4/4] e2 B2 A2 G2 | %12
 [Cc]2[K:bass] [E,C]2 [F,CD]2 [_G,CE]2 | [G,B,E]4 [A,B,D]4 |[M:7/4] [G,B,E]6 z2 z2 z4 | %15
[M:4/4] [A,CE]4 [G,B,E]4 |] %16
V:2
 z4 z2 [E,G,B,]2 | [B,,F,A,]2 [B,,F,A,]2 [C,E,A,]2 [D,F,A,]2 | [E,G,]6 [E,B,]2 | %3
 [A,,E,]2 [A,,A,]2 [B,,G,B,]2 [B,,F,B,]2 |[M:3/4] [E,G,B,]6 |[M:1/4] [E,G,]2 | %6
[M:4/4] [C,C]2 [C,C]2 [D,B,D]2 [D,=A,D]2 | [G,B,D]2 [G,CD]2 [G,D]2 [G,B,=E]2 | [F,B,F]4 [F,CE]4 | %9
[M:3/4] [B,D]6 |[M:1/4] [A,B,D]2 |[M:4/4] [G,B,E]2 [G,B,E]2 [E,B,_D]2 [E,D]2 | %12
 [A,,E,]2 A,,2 =A,,2 A,,2 | B,,4 B,,4 |[M:7/4] E,6 z2 z2 z4 |[M:4/4] A,,4 E,4 |] %16

